X: 1
T:Beyond Ballybay
R:jig
C:Ed Reavy
Z: transcribed by Bil 3/00
M:6/8
L:1/8
Z:Joe Reavy
N:As a boy, Ed was fascinated with the thought
N:of going to Ballybay "and beyond." He remembered
N:it as a lovely town, "full of grand music
N:on a market day."
K:D
A,|DFA dcd|fed cAF|DFA CBC|=cBA GEC|DFA dcd|
DFA cBc|d=cB cGE|1DED D2 A:|2DED D2 f/2/g/2||
afd dcd|Bcd efg|bge efd|ced cBA|1afd dcd|
Bcd efg|fed gec|edc d2 f/2g/2:|2fed gfe|
agf bag|fed cAG|FDD D2||
